svg/truck_trailer.svg

<svg xmlns="http://www.w3.org/2000/svg" viewBox="0 0 24 24"><path d="M22 15v2H10a3 3 0 0 1-3 3 3 3 0 0 1-3-3H2V6a2 2 0 0 1 2-2h13a2 2 0 0 1 2 2v9zM7 16a1 1 0 0 0-1 1 1 1 0 0 0 1 1 1 1 0 0 0 1-1 1 1 0 0 0-1-1"/></svg>

<?xml version="1.0" encoding="UTF-8"?><!DOCTYPE svg PUBLIC "-//W3C//DTD SVG 1.1//EN" "http://www.w3.org/Graphics/SVG/1.1/DTD/svg11.dtd"><svg xmlns="http://www.w3.org/2000/svg" xmlns:xlink="http://www.w3.org/1999/xlink" version="1.1" id="mdi-truck-trailer" width="24" height="24" viewBox="0 0 24 24"><path d="M22,15V17H10A3,3 0 0,1 7,20A3,3 0 0,1 4,17H2V6A2,2 0 0,1 4,4H17A2,2 0 0,1 19,6V15H22M7,16A1,1 0 0,0 6,17A1,1 0 0,0 7,18A1,1 0 0,0 8,17A1,1 0 0,0 7,16Z" /></svg>
